packages/tokens/icons/ai/size32Px.svg

<svg viewBox="0 0 32 32" fill="none" xmlns="http://www.w3.org/2000/svg" width="1em" height="1em"><path d="M16 3.2549C16 3.2549 5 -1.79561 5 14.2301C5 22.8194 10.72 29.5 16 29.5" stroke="currentColor" stroke-linecap="round" stroke-linejoin="round"/><path d="M16 15.5H11.5" stroke="currentColor" stroke-linecap="round" stroke-linejoin="round"/><path d="M12 9.00002L13.3 7.26668C13.4298 7.09359 13.5 6.88305 13.5 6.66668V3" stroke="currentColor" stroke-linecap="round" stroke-linejoin="round"/><path d="M11.5 22L13.2372 23.8951C13.4062 24.0795 13.5 24.3206 13.5 24.5708V28.5" stroke="currentColor" stroke-linecap="round" stroke-linejoin="round"/><line x1="5.5" y1="11.5" x2="7.5" y2="11.5" stroke="currentColor" stroke-linecap="round"/><path d="M6 18.5H7.5" stroke="currentColor" stroke-linecap="round"/><circle cx="11" cy="10" r="1" stroke="currentColor" stroke-linecap="round" stroke-linejoin="round"/><circle cx="1" cy="1" r="1" transform="matrix(1 0 0 -1 10 22)" stroke="currentColor" stroke-linecap="round" stroke-linejoin="round"/><path d="M9.5 17C10.3284 17 11 16.3284 11 15.5C11 14.6716 10.3284 14 9.5 14" stroke="currentColor" stroke-linecap="round" stroke-linejoin="round"/><path d="M16 3.25232C20 1.23022 27 2.77509 27 14.2286C27 22.8188 21.28 29.5 16 29.5" stroke="currentColor" stroke-linecap="round" stroke-linejoin="round"/><path d="M16 15.5H20.5" stroke="currentColor" stroke-linecap="round" stroke-linejoin="round"/><path d="M20 9L18.7 7.26667C18.5702 7.09357 18.5 6.88304 18.5 6.66667V3" stroke="currentColor" stroke-linecap="round" stroke-linejoin="round"/><path d="M20.5 22L18.7628 23.8951C18.5938 24.0795 18.5 24.3206 18.5 24.5708V28.5" stroke="currentColor" stroke-linecap="round" stroke-linejoin="round"/><line x1="0.5" y1="-0.5" x2="2.5" y2="-0.5" transform="matrix(-1 0 0 1 27 12)" stroke="currentColor" stroke-linecap="round"/><path d="M26 18.5H24.5" stroke="currentColor" stroke-linecap="round"/><circle cx="1" cy="1" r="1" transform="matrix(-1 0 0 1 22 9)" stroke="currentColor" stroke-linecap="round" stroke-linejoin="round"/><circle cx="21" cy="21" r="1" transform="rotate(-180 21 21)" stroke="currentColor" stroke-linecap="round" stroke-linejoin="round"/><path d="M22.5 17C21.6716 17 21 16.3284 21 15.5C21 14.6716 21.6716 14 22.5 14" stroke="currentColor" stroke-linecap="round" stroke-linejoin="round"/><path d="M16 3.5L16 29.5" stroke="currentColor" stroke-linecap="round"/></svg>

<svg xmlns="http://www.w3.org/2000/svg" fill="none" viewBox="0 0 32 32" width="1em" height="1em"><path stroke="currentColor" stroke-linecap="round" stroke-linejoin="round" d="M16 3.255S5-1.795 5 14.23c0 8.59 5.72 15.27 11 15.27m0-14h-4.5"/><path stroke="currentColor" stroke-linecap="round" stroke-linejoin="round" d="m12 9 1.3-1.733a1 1 0 0 0 .2-.6V3m-2 19 1.737 1.895a1 1 0 0 1 .263.676V28.5"/><path stroke="currentColor" stroke-linecap="round" d="M5.5 11.5h2m-1.5 7h1.5"/><circle cx="11" cy="10" r="1" stroke="currentColor" stroke-linecap="round" stroke-linejoin="round"/><circle cx="1" cy="1" r="1" stroke="currentColor" stroke-linecap="round" stroke-linejoin="round" transform="matrix(1 0 0 -1 10 22)"/><path stroke="currentColor" stroke-linecap="round" stroke-linejoin="round" d="M9.5 17a1.5 1.5 0 0 0 0-3M16 3.252c4-2.022 11-.477 11 10.977 0 8.59-5.72 15.271-11 15.271m0-14h4.5"/><path stroke="currentColor" stroke-linecap="round" stroke-linejoin="round" d="m20 9-1.3-1.733a1 1 0 0 1-.2-.6V3m2 19-1.737 1.895a1 1 0 0 0-.263.676V28.5"/><path stroke="currentColor" stroke-linecap="round" d="M26.5 11.5h-2m1.5 7h-1.5"/><circle cx="1" cy="1" r="1" stroke="currentColor" stroke-linecap="round" stroke-linejoin="round" transform="matrix(-1 0 0 1 22 9)"/><circle cx="21" cy="21" r="1" stroke="currentColor" stroke-linecap="round" stroke-linejoin="round" transform="rotate(-180 21 21)"/><path stroke="currentColor" stroke-linecap="round" stroke-linejoin="round" d="M22.5 17a1.5 1.5 0 0 1 0-3"/><path stroke="currentColor" stroke-linecap="round" d="M16 3.5v26"/></svg>
